client/public/media/svg/brand-logos/telegram.svg

<svg fill="none" height="23" viewBox="0 0 23 23" width="23" xmlns="http://www.w3.org/2000/svg"><path d="m11.5 23c6.3513 0 11.5-5.1487 11.5-11.5 0-6.35127-5.1487-11.5-11.5-11.5-6.35127 0-11.5 5.14873-11.5 11.5 0 6.3513 5.14873 11.5 11.5 11.5z" fill="#039be5"/><path d="m5.26234 11.2509 11.08796-4.27512c.5146-.18591.964.12555.7973.90371l.001-.00095-1.888 8.89426c-.1399.6306-.5146.7839-1.0388.4869l-2.875-2.1189-1.38671 1.3359c-.15333.1533-.28271.2827-.57979.2827l.20412-2.9258 5.32838-4.81369c.2319-.20412-.0518-.31912-.3575-.11596l-6.58471 4.14575-2.83859-.8855c-.6162-.1955-.62962-.6162.13034-.9133z" fill="#fff"/></svg>

<svg width="23" height="23" viewBox="0 0 23 23" fill="none" xmlns="http://www.w3.org/2000/svg">
<path d="M11.5 23C17.8513 23 23 17.8513 23 11.5C23 5.14873 17.8513 0 11.5 0C5.14873 0 0 5.14873 0 11.5C0 17.8513 5.14873 23 11.5 23Z" fill="#039BE5"/>
<path d="M5.26234 11.2509L16.3503 6.97578C16.8649 6.78987 17.3143 7.10133 17.1476 7.87949L17.1486 7.87854L15.2606 16.7728C15.1207 17.4034 14.746 17.5567 14.2218 17.2597L11.3468 15.1408L9.96009 16.4767C9.80676 16.63 9.67738 16.7594 9.3803 16.7594L9.58442 13.8336L14.9128 9.01991C15.1447 8.81579 14.861 8.70079 14.5553 8.90395L7.97059 13.0497L5.132 12.1642C4.5158 11.9687 4.50238 11.548 5.26234 11.2509Z" fill="white"/>
</svg>
